Sources/FrostedUI/Resources/Icons.xcassets/parachute24.imageset/parachute-24.svg

<svg width="24" height="24" viewBox="0 0 24 24" fill="none" xmlns="http://www.w3.org/2000/svg" data-fui-icon="true">
  <path
    d="M11.9998 1C14.6388 1 16.6809 1.69502 18.2458 2.77246C19.8042 3.84543 20.8476 5.26903 21.5457 6.66504C22.2426 8.05908 22.6046 9.44406 22.7927 10.4746C22.8871 10.9917 22.9384 11.4245 22.9666 11.7305C22.9806 11.8835 22.9882 12.0056 22.9929 12.0908C22.9953 12.1333 22.9969 12.1667 22.9978 12.1904C22.9983 12.2023 22.9986 12.2118 22.9988 12.2188C22.9989 12.2222 22.9997 12.2253 22.9998 12.2275V12.2314C22.9969 12.2319 22.9515 12.2333 22.2498 12.25L22.9998 12.2324C23.0043 12.425 22.934 12.6123 22.8044 12.7549L17.9832 18.0576C17.9929 18.1204 17.9998 18.1845 17.9998 18.25V21.25C17.9998 22.2165 17.2163 23 16.2498 23H7.74976C6.78335 22.9999 5.99976 22.2164 5.99976 21.25V18.25C5.99976 18.1845 6.00568 18.1204 6.01538 18.0576L1.19507 12.7549C1.06554 12.6124 0.995244 12.425 0.999756 12.2324L1.74976 12.25C1.01197 12.2324 0.999928 12.2319 0.999756 12.2314V12.2275C0.999817 12.2253 1.00062 12.2222 1.00073 12.2188C1.00095 12.2118 1.00125 12.2023 1.00171 12.1904C1.00264 12.1667 1.00424 12.1333 1.00659 12.0908C1.01133 12.0056 1.01891 11.8835 1.03296 11.7305C1.06106 11.4245 1.11241 10.9917 1.20679 10.4746C1.3949 9.44408 1.75692 8.05907 2.45386 6.66504C3.15186 5.26904 4.19539 3.84544 5.75366 2.77246C7.31856 1.69499 9.36075 1.00004 11.9998 1ZM7.49976 21.25C7.49976 21.388 7.61178 21.4999 7.74976 21.5H16.2498C16.3878 21.5 16.4998 21.3881 16.4998 21.25V18.5H7.49976V21.25ZM6.87476 10.5C5.11342 10.5001 3.99331 11.0634 3.32202 11.5898C3.05195 11.8017 2.84945 12.0123 2.70483 12.1855L7.09155 17.0107C7.14333 17.0042 7.1962 17 7.24976 17H11.2498V12.4619C11.2222 12.4205 11.1891 12.369 11.1462 12.3125C11.0013 12.1213 10.7678 11.8568 10.4275 11.5898C9.75623 11.0634 8.63612 10.5 6.87476 10.5ZM17.1248 10.5C15.3634 10.5 14.2433 11.0634 13.572 11.5898C13.2317 11.8568 12.9982 12.1213 12.8533 12.3125C12.8104 12.369 12.7773 12.4205 12.7498 12.4619V17H16.7498C16.803 17 16.8555 17.0043 16.907 17.0107L21.2937 12.1855C21.1491 12.0124 20.9473 11.8015 20.6775 11.5898C20.0062 11.0634 18.8862 10.5 17.1248 10.5ZM11.9998 2.5C9.63903 2.50004 7.89961 3.1176 6.60522 4.00879C5.30447 4.90443 4.41009 6.10621 3.79565 7.33496C3.31063 8.30502 3.00562 9.28125 2.81421 10.1104C3.73533 9.50789 5.05706 9.00007 6.87476 9C8.98801 9 10.4308 9.68667 11.3533 10.4102C11.6106 10.612 11.824 10.8157 11.9998 11.0039C12.1755 10.8157 12.389 10.612 12.6462 10.4102C13.5687 9.68667 15.0115 9.00004 17.1248 9C18.942 9 20.2632 9.50811 21.1843 10.1104C20.9929 9.28128 20.6889 8.30495 20.2039 7.33496C19.5894 6.1062 18.6951 4.90442 17.3943 4.00879C16.0999 3.11763 14.3605 2.5 11.9998 2.5Z"
    fill="currentColor"
  />
</svg>

<svg xmlns="http://www.w3.org/2000/svg" width="24" height="24" fill="none" data-fui-icon="true" viewBox="0 0 24 24"><path fill="currentColor" d="M12 1c2.639 0 4.68.695 6.246 1.772 1.558 1.073 2.602 2.497 3.3 3.893.697 1.394 1.059 2.78 1.247 3.81.094.517.145.95.174 1.255a10 10 0 0 1 .032.489v.012l-.75.019.75-.018a.75.75 0 0 1-.195.523l-4.82 5.303q.015.094.016.192v3A1.75 1.75 0 0 1 16.25 23h-8.5A1.75 1.75 0 0 1 6 21.25v-3q0-.099.015-.192l-4.82-5.303A.75.75 0 0 1 1 12.232l.75.018-.75-.019v-.012l.007-.128q.006-.129.026-.36c.028-.306.08-.74.174-1.256.188-1.03.55-2.416 1.247-3.81.698-1.396 1.741-2.82 3.3-3.893C7.319 1.695 9.36 1 12 1M7.5 21.25c0 .138.112.25.25.25h8.5a.25.25 0 0 0 .25-.25V18.5h-9zM6.875 10.5c-1.762 0-2.882.563-3.553 1.09-.27.212-.473.422-.617.595l4.387 4.826A1 1 0 0 1 7.25 17h4v-4.538c-.028-.041-.06-.093-.104-.15a4 4 0 0 0-.719-.722c-.67-.527-1.79-1.09-3.552-1.09m10.25 0c-1.762 0-2.882.563-3.553 1.09-.34.267-.574.531-.719.723q-.063.085-.103.149V17h4q.08 0 .157.01l4.387-4.825a4 4 0 0 0-.617-.595c-.67-.527-1.79-1.09-3.552-1.09M12 2.5c-2.361 0-4.1.618-5.395 1.509-1.3.895-2.195 2.097-2.81 3.326-.484.97-.79 1.946-.98 2.775C3.734 9.508 5.056 9 6.874 9c2.113 0 3.556.687 4.478 1.41.258.202.471.406.647.594a6 6 0 0 1 .646-.594C13.57 9.687 15.011 9 17.125 9c1.817 0 3.138.508 4.06 1.11a12.6 12.6 0 0 0-.981-2.775c-.615-1.229-1.509-2.43-2.81-3.326C16.1 3.118 14.361 2.5 12 2.5"/></svg>
